remix/Document/markdown-line.svg

<svg viewBox="0 0 24 24" fill="currentColor" xmlns="http://www.w3.org/2000/svg"><path d="M3 3H21C21.5523 3 22 3.44772 22 4V20C22 20.5523 21.5523 21 21 21H3C2.44772 21 2 20.5523 2 20V4C2 3.44772 2.44772 3 3 3ZM4 5V19H20V5H4ZM7 15.5H5V8.5H7L9 10.5L11 8.5H13V15.5H11V11.5L9 13.5L7 11.5V15.5ZM18 12.5H20L17 15.5L14 12.5H16V8.5H18V12.5Z"/></svg>

<svg viewBox="0 0 24 24" xmlns="http://www.w3.org/2000/svg"><path fill="none" d="M0 0h24v24H0Z"/><path d="M3 3h18v0c.55 0 1 .44 1 1v16 0c0 .55-.45 1-1 1H3v0c-.56 0-1-.45-1-1V4v0c0-.56.44-1 1-1Zm1 2v14h16V5H4Zm3 10.5H5v-7h2l2 2 2-2h2v7h-2v-4l-2 2 -2-2v4Zm11-3h2l-3 3 -3-3h2v-4h2v4Z"/></svg>
